!!!SOCIAL_FUNCTION:	dance songs
!!!PDT:	1943
!!!OTL: No_42_Dance_Song_(c).krn
!!!REG: British Columbia
**kern	**kern
*staff2	*staff1
=1-	=1-
=	=
*clefF4	*clefF4
*k[f#c#]	*k[f#c#]
*M2/4	*M2/4
4GG/	8F#\L
.	8B\J
4GG/	8.B\L
.	16B\Jk
=2	=2
4GG/	8B\L
.	8d\J
4GG/	16d\LL
.	16c#\
.	16c#\
.	16B\JJ
=3	=3
4GG/	8c#\L
.	8B\J
4GG/	8B\
.	16r
.	16c#\
=4	=4
2r	8.d\L
.	16d\Jk
.	16d\LL
.	16c#\
.	16c#\
.	16B\JJ
=5	=5
2r	8c#\L
.	8B\J
.	8B\
.	8r
=6	=6
2r	8F#\L
.	8B\J
.	8.B\L
.	16B\Jk
=7	=7
2r	8B\L
.	8e\J
.	8.e\L
.	16c#\Jk
=8	=8
2r	8.d\L
.	16d\Jk
.	16d\LL
.	16c#\JJ
.	8r
=9	=9
2r	8B\L
.	8d\J
.	16d\LL
.	16c#\
.	16c#\
.	16B\JJ
=10	=10
2r	8c#\L
.	8B\J
.	8B\
.	8r
==	==
*-	*-
